!!!COA:	Josquin des Prez
!!!CDT:	~1450-1521/08/27
!!!OPR:	Missa Allez regretz I
!!!ONM:	2
!!!OTL:	Gloria
!!!AGN:	Mass; Gloria
!!!SCT:	NJE 7.1
!!!SCA:	New Josquin Edition 7.1
!!!voices:	4
!!!voices-OPR:	4
**kern	**kern	**kern	**kern
*staff4	*staff3	*staff2	*staff1
*Ivox	*Ivox	*Ivox	*Ivox
*I"Bassus	*I"Tenor	*I"Altus	*I"Superius
*I'B	*I'T	*I'A	*I'S
*>[A,B]	*>[A,B]	*>[A,B]	*>[A,B]
*>A	*>A	*>A	*>A
*clefF4	*clefGv2	*clefGv2	*clefG2
*k[b-]	*k[b-]	*k[b-]	*k[b-]
*M2/1	*M2/1	*M2/1	*M2/1
*met(C)	*met(C)	*met(C)	*met(C)
=1-	=1-	=1-	=1-
0r	2.F/	0r	0r
.	4F/	.	.
.	2F/	.	.
.	2G/	.	.
=2	=2	=2	=2
0r	2A/	2.F/	0r
.	2c\	.	.
.	.	4F/	.
.	2c\	2F/	.
.	2B-\	2G/	.
=3	=3	=3	=3
0r	1c	2A/	2.c/
.	.	2c\	.
.	.	.	4c/
.	1r	2c\	2c/
.	.	2B-\	2d/
=4	=4	=4	=4
2.C/	2r	2c\	2e/
.	2.c\	1e-	2g/
4C/	.	.	.
2C/	.	.	2g/
.	4B-\	.	.
2D\	2A/	2d\	2f/
=5	=5	=5	=5
2E\	2G/	2c\	2g/
2G\	1B-	2B-\	2g/
4G\	.	2d\	2g/
4F\	.	.	.
2G\	2B-\	2e\	2g/
=6	=6	=6	=6
1F	1A	2f\	2a/
.	.	2c\	2a/
2D\	2A/	2d\	1a
2D\	2A/	2d\	.
=7	=7	=7	=7
1.F	2A/	1c	1r
.	2A/	.	.
.	2A/	2c\	2r
2BB-/	[2B-\	2d\	2g/
=8	=8	=8	=8
1E-	2B-\]	2B-\	2g/
.	2G/	2c\	2g/
1D	1A	1d	2f/
.	.	.	2f/
=9	=9	=9	=9
2r	1G	2B-\	2b-\
2G\	.	4G/	2b-\
.	.	4A/	.
2G\	2r	4B-\	2b-\
.	.	4c\	.
2G\	2G/	4d\	2b-\
.	.	4e\	.
=10	=10	=10	=10
2F\	1c	1f	2a/
2F\	.	.	2a/
2G\	2B-\	1d	2g/
2G\	2B-\	.	2g/
=11	=11	=11	=11
2C/	2c\	2e\	2.g/
2C/	2A/	2c\	.
.	.	.	8f/L
.	.	.	8e/J
2BB-/	2B-\	2d\	2d/
2C/	2G/	[2c\	[2e/
=12	=12	=12	=12
2C/	2A/	2c\]	4e/]
.	.	.	4c/
2D\	2F/	2B-\	1f
2C/	1G	1c	.
2C/	.	.	2e/
=13	=13	=13	=13
1F	0F	2r	0f
.	.	2c\	.
2r	.	2c\	.
2A\	.	2c\	.
=14	=14	=14	=14
2G\	0r	2B-\	0r
2F\	.	2A/	.
2F\	.	1G	.
2E\	.	.	.
=15	=15	=15	=15
1F	1r	1F	1r
2.F\	2.c\	2.f\	2.a/
4F\	4c\	4f\	4a/
=16	=16	=16	=16
2F\	2c\	2f\	2a/
2.F\	2.c\	2.f\	2.a/
4F\	4c\	4f\	4a/
2F\	2c\	2f\	2a/
=17	=17	=17	=17
1G	1B-	2e\	2g/
.	.	2e\	2g/
1F	1A	2.f\	1cc
.	.	4e\	.
=18	=18	=18	=18
2r	2r	2d\	2b-\
2F\	2F/	2c\	2a/
2D\	2F/	2d\	4b-\
.	.	.	4a/
2D\	2F/	2B-\	4g/
.	.	.	4f/
=19	=19	=19	=19
0C	1G	2c\	2e/
.	.	4C/	1e
.	.	4D/	.
.	1r	4E/	.
.	.	4F/	.
.	.	4G/	4d/
.	.	4A/	4c/
=20	=20	=20	=20
0r	0r	1B-	2d/
.	.	.	1f
.	.	2A/	.
.	.	2G/	2e/
=21	=21	=21	=21
0r	0r	4A/	4f/
.	.	4G/	4e/
.	.	2.A/	4d/
.	.	.	4c/
.	.	.	1B-
.	.	4G/	.
.	.	2G/	.
=22	=22	=22	=22
2r	2r	0A	0A
2F\	1F	.	.
2D\	.	.	.
2D\	2F/	.	.
=23	=23	=23	=23
2C/	1c	1r	0r
2C/	.	.	.
2F\	2c\	2r	.
2F\	2c\	2A/	.
=24	=24	=24	=24
2D\	2d\	4B-\	0r
.	.	4A/	.
2D\	2d\	4G/	.
.	.	4F/	.
1BB-	2d\	4G/	.
.	.	2A/	.
.	2d\	.	.
.	.	4G/	.
=25	=25	=25	=25
1AA	2c\	1A	0r
.	2c\	.	.
1C	2c\	1G	.
.	4B-\	.	.
.	4A/	.	.
=26	=26	=26	=26
1D	2B-\	2F/	0r
.	2A/	1f	.
2D\	2F/	.	.
[2C/	[2G/	[2e\	.
=27	=27	=27	=27
2C/]	2G/]	2e\]	0r
2AA/	1A	2c\	.
1BB-	.	2d\	.
.	2G/	2d\	.
=28	=28	=28	=28
0AA	[0A	2c\	1r
.	.	2.c\	.
.	.	.	2.A/
.	.	4c\	.
.	.	2c\	.
.	.	.	4A/
=29	=29	=29	=29
0r	0A]	2F/	2c/
.	.	2F/	2c/
.	.	2F/	2c/
.	.	2F/	2d/
=30	=30	=30	=30
0r	0r	4D/	2f/
.	.	4E/	.
.	.	4F/	1f
.	.	4G/	.
.	.	4A/	.
.	.	4B-\	.
.	.	[2c\	2e/
=31	=31	=31	=31
1r	1r	2c\]	1d
.	.	2B-\	.
1AA	1A	1c	1c
=32	=32	=32	=32
1D	1F	2r	2d/
.	.	2B-\	2d/
1D	1F	2B-\	1d
.	.	2B-\	.
=33	=33	=33	=33
0C	0G	0c	0e
=34	=34	=34	=34
1D	1F	2A/	1d
.	.	2B-\	.
2C/	2G/	2c\	2e/
2D\	[2F/	[2A/	[2f/
=35	=35	=35	=35
2F\	2F/]	2A/]	2f/]
2F\	1c	2A/	2a/
2F\	.	2A/	2a/
2G\	2B-\	2d\	2g/
=36	=36	=36	=36
2C/	2c\	4c\	2g/
.	.	2c\	.
2D\	2F/	.	1f
.	.	4B-\	.
2C/	1G	1c	.
2C/	.	.	2e/
=37	=37	=37	=37
0F	0F	1A	2.f/
.	.	.	4g/
.	.	2r	4a/
.	.	.	4b-\
.	.	2F/	[2a/
=38	=38	=38	=38
1r	0r	2A/	2a/]
.	.	2B-\	2g/
2r	.	2c\	2e/
[2D\	.	[2F/	[2f/
=39	=39	=39	=39
4D\]	1r	4F/]	4f/]
4C/	.	4G/	4e/
2AA/	.	1A	4d/
.	.	.	4c/
1BB-	2r	.	1d
.	2D/	2G/	.
=40	=40	=40	=40
1AA	2E/	1A	1c
.	2E/	.	.
1D	1F	1B-	1f
=41	=41	=41	=41
0Cl	0Gl	0cl	0el
!!LO:LB:i:g=z
=42||	=42||	=42||	=42||
*>B	*>B	*>B	*>B
*clefF4	*clefGv2	*clefGv2	*clefG2
*k[b-]	*k[b-]	*k[b-]	*k[b-]
*M2/1	*M2/1	*M2/1	*M2/1
*met(C)	*met(C)	*met(C)	*met(C)
!!section: Qui tollis
!!!OMD: Qui tollis
1AA	1A	1c	1e
2AA/	2A/	2c\	2e/
2AA/	2A/	2c\	2e/
=43	=43	=43	=43
2D\	2A/	1d	2f/
2D\	2A/	.	2f/
2D\	2A/	1d	2f/
2D\	2A/	.	2f/
=44	=44	=44	=44
2F\	1A	1c	2f/
2F\	.	.	1a
2F\	1F	2A/	.
4E\	.	2B-\	4g/
4D\	.	.	4f/
=45	=45	=45	=45
4C/	2.G/	1c	1e
4D\	.	.	.
4E\	.	.	.
4F\	4A/	.	.
1G	2B-\	1r	2.d/
.	2B-\	.	.
.	.	.	4e/
=46	=46	=46	=46
2F\	2A/	2r	2f/
1E	1G	1c	1g
[2D\	2A/	[2d\	[2f/
=47	=47	=47	=47
2D\]	2B-\	2d\]	2f/]
2C/	2c\	2e\	2e/
[1D	[1A	2f\	2d/
.	.	[2d\	[2f/
=48	=48	=48	=48
1D]	1A]	1d]	4f/]
.	.	.	4g/
.	.	.	2a/
1r	1r	1B-	4b-\
.	.	.	4a/
.	.	.	4g/
.	.	.	4f/
=49	=49	=49	=49
1r	1r	1c	1e
2r	2r	1r	1r
2F\	2A/	.	.
=50	=50	=50	=50
2D\	2A/	0r	0r
2D\	2A/	.	.
2G\	2B-\	.	.
2G\	2B-\	.	.
=51	=51	=51	=51
2F\	2A/	0r	0r
2E\	1c	.	.
1D	.	.	.
.	2Bni\	.	.
=52	=52	=52	=52
1C	1c	1r	0r
2.c\	1r	2.A/	.
4c\	.	4A/	.
=53	=53	=53	=53
2c\	0r	2A/	0r
2B-\	.	2G/	.
2B-\	.	2G/	.
2A\	.	2c\	.
=54	=54	=54	=54
2G\	0r	2B-\	0r
2F\	.	2A/	.
2E\	.	2G/	.
[2F\	.	[2A/	.
=55	=55	=55	=55
2F\]	1r	2A/]	0r
4E\	.	4G/	.
4D\	.	4F/	.
2C/	2r	2c\	.
2D\	[2F/	2A/	.
=56	=56	=56	=56
2D\	2F/]	2A/	0r
2D\	2F/	2A/	.
1BB-	1F	1d	.
=57	=57	=57	=57
2BB-/	2F/	2d\	0r
2BB-/	2F/	2d\	.
2BB-/	2F/	2f\	.
[2D\	[2F/	[2f\	.
=58	=58	=58	=58
2D\]	2F/]	2f\]	1r
4C/	2G/	4e\	.
4BB-/	.	4d\	.
[1AA	1A	1c	2r
.	.	.	2c/
=59	=59	=59	=59
1AA]	2A/	2r	4c/
.	.	.	4d/
.	2A/	2c\	4e/
.	.	.	4f/
1GG	1B-	2d\	2g/
.	.	2d\	2g/
=60	=60	=60	=60
2r	2A/	2c\	2f/
2C/	1G	1c	1e
2C/	.	.	.
2D\	2F/	2B-\	[2d/
=61	=61	=61	=61
2AA/	1E	1A	2d/]
2AA/	.	.	2c#i/
1D	1D	1F	1d
=62	=62	=62	=62
2.BB-/	2.F/	2.B-\	2.d/
4BB-/	4F/	4B-\	4d/
2BB-/	2F/	2B-\	2d/
2BB-/	2D/	2B-\	2d/
=63	=63	=63	=63
1.C	1E	1G	2.c/
.	.	.	8B-/L
.	.	.	8A/J
.	2E/	2c\	2G/
[2D\	[2F/	2A/	[2F/
=64	=64	=64	=64
4D\]	4F/]	2d\	2F/]
4E\	4G/	.	.
2F\	2A/	1.c	1f
2C/	1G	.	.
2C/	.	.	2e/
=65	=65	=65	=65
2F\	2F/	1A	1f
2A\	2F/	.	.
2A\	2F/	1r	1r
[2G\	[2E/	.	.
=66	=66	=66	=66
2G\]	2E/]	0r	0r
1c	2C/	.	.
.	1D	.	.
2Bni\	.	.	.
=67	=67	=67	=67
1c	2C/	2r	2r
.	2F/	2f\	2a/
1r	2F/	2f\	2a/
.	[2C/	[2e\	2g/
=68	=68	=68	=68
0r	2C/]	2e\]	2g/
.	2C/	2c\	1cc
.	2G/	2d\	.
.	2G/	2d\	2b-\
=69	=69	=69	=69
1r	1A	1c	2cc\
.	.	.	2a/
1F	2r	2r	2.a/
.	2A/	[2c\	.
.	.	.	8g/L
.	.	.	8f/J
=70	=70	=70	=70
1C	1G	2c\]	1e
.	.	1c	.
1D	1F	.	1f
.	.	2B-\	.
=71	=71	=71	=71
0C	0G	0c	0e
=72	=72	=72	=72
2r	2r	2r	2r
2D\	2F/	2A/	2f/
2C/	2G/	2c\	2e/
2AA/	2A/	2c\	2f/
=73	=73	=73	=73
2GG/	4B-\	2d\	4g/
.	4A/	.	4f/
2GG/	4G/	2B-\	4e/
.	4F/	.	4d/
1AA	2E/	1A	1c
.	2E/	.	.
=74	=74	=74	=74
2r	2D/	2r	2r
1GG	2.G/	1B-	1d
.	4F/	.	.
2GG/	4E/	2G/	2g/
.	4D/	.	.
=75	=75	=75	=75
1D	4F/	2A/	2f/
.	4G/	.	.
.	4A/	2F/	4e/
.	4B-\	.	4d/
1C	1c	1G	1e
=76	=76	=76	=76
2r	2r	2F/	2r
2F\	2c\	2f\	2a/
2G\	2B-\	2e\	2g/
2F\	2A/	2f\	[2cc\
=77	=77	=77	=77
1E-	1G	1c	4cc\]
.	.	.	4b-\
.	.	.	4a/
.	.	.	4g/
2D\	2A/	2.d\	2f/
2G\	2G/	.	2b-\
.	.	4e\	.
=78	=78	=78	=78
2F\	2c\	4f\	2a/
.	.	4g\	.
2G\	2B-\	2e\	2g/
1F	1c	[1f	1a
=79	=79	=79	=79
2D\	2d\	2f\]	2f/
2G\	2.B-\	1d	2.g/
2D\	.	.	.
.	4F/	.	4f/
2F\	2A/	[2c\	[2f/
=80	=80	=80	=80
1C	1G	4c\]	2f/]
.	.	4B-\	.
.	.	4A/	2e/
.	.	4G/	.
1Fl	1Fl	1Al	1fl
==	==	==	==
*-	*-	*-	*-
!!!RDF**kern: l=long note in original notation
!!!RDF**kern: i=editorial accidental
!!!RDF**kern: V=start of tuplet marker
!!!RDF**kern: Z=end of tuplet marker
!!!ENC:	Jesse Rodin; Victoria Chang 2012/02/27
!!!END:	2012/02/27/
!!!EED:	Jesse Rodin
!!!EEV:	2012/06/27/
!!attribution-level@Jos: 4 (questionable)
!!!ONB:	Translated from MusicXML and edited on 2012/06/27/ by Craig Sapp
!!muse2ps: T^@{OPR}^u^@{ONM}{. }@{OTL}^C^@{COA}?\n@{SCT}^i2I150v85,85,85,150Q16
